X: 20
T: Humours Of Ennistymon, The
Z: UPipes & harp
S: https://thesession.org/tunes/228#setting49211
R: jig
M: 6/8
L: 1/8
K: Gmaj
A|:~B3 GBd|cBc Adc|~B3 GBd|cAG E/F/GA|
~B3 GBd|cBc ABc|Bed cAF|1 AGF ~G2 A:|2 AGF GBd|
|:~f3 fed|cAG FGA|~g3 gfg|afd d2 e|
faf fed|cAG FGA|BdB cAF|AGF GBd:|
gdB gdB|ecA ecA|~B3 GBd|cAG FGA|
gdB gdB|ecA ecA|BAB GBd|cAF G3|
gdB gdB|ecA ecA|~B3 GBd|cAG FGA|
gba gdB|egf ecA|~B3 GBd|cAF G3||

